X:1
T:Title
%%score { 1 | ( 2 3 ) }
L:1/8
M:4/4
K:Db
V:1 treble nm="Grand Piano"
V:2 bass 
V:3 bass 
V:1
 z4 z2[Q:1/4=96] [F,D][A,DF] | [DFA]2 [DAd]2 [DAc]2 [GB]2 | [FA]2 [A,DF]4 [A,DF][A,EG] | %3
 [DFA]2 [DFB]2 [A,EG]2 [A,EA]2 | [A,DF]6 [F,D][A,DF] | [DFA]2 [DAd]2 [DAc]2 [DGB]2 | A2 F4 FF | %7
 [DA]2 [B,DG]2 [A,DF]2[K:bass] [G,CE]2 | [F,D]6[K:treble] [FA][FA] | [Ge]2 [Gc]2 [EA]2 [EG]2 | %10
 [DF]2 [FA]4 [FA][FA] | d2 d2 d2 c2 | [DB]6 BB | B2 c2 ddcB | A6 =G2 | A3 A A2 e2 | %16
[M:5/8] [Fd]- [Fd]3 z |[M:3/8] [DFd][DGd][DAd] |[M:4/4] [DBd]2 [DGB]2- [DGB][DBd][DAc][DGB] | %19
 [DFA]2 [A,DF]4 [FA][FA] | c3 B G2 B2 | [FA]4 z [Fd][Gd][Ad] | [Bd]2 B2- Bdcd | f2 A4 A2 | %24
 =G3 [GB] [Ge]2 [Gf]2 | e6 AA | [Af]2 [Ad]2 [GB]2 [Gc]2 | [FB]2 [FA]4 [FA]2 | d3 d d2 [Be]2 | %29
 [=Af]6 [Af][Af] | [=Af]2 e2 ddcB | A6 =G2 |[M:9/8] A3 A A2 e3 |[M:3/4] [Fd]6 |] %34
V:2
 z4 z2 D,D, | z4 z2 B,2 | D2 D,4 D,D, | D,2 A,,2 C,A,,B,,C, | D,6 D,D, | %5
 D,2 F,2 G,A,A,[K:treble]C | [DF]2[K:bass] [D,A,D]4 [D,A,D][D,A,D] | [A,,F,]2 A,,2 A,,2 A,,2 | %8
 D,6 [D,D][D,D] | [C,A,]2 [E,A,]2 [A,C]2 [A,,A,]2 | [D,A,]2 [D,D]4 [D,D][D,D] | %11
 [B,F]2 [B,F]2[K:bass] [F,B,F]2 [F,=A,E]2 | [B,,B,]6[K:treble] [B,DF][A,DF] | %13
 [=G,D_F]2 [G,CF]2 [G,B,F][G,B,F][G,CF][G,DF] | [A,DF]6 [=A,D_F]2 | [A,DF]3 [A,DF] [A,CG]2 [A,G]2 | %16
[M:5/8][K:bass] [D,A,]- [D,A,]3 z |[M:3/8] D,E,F, |[M:4/4] G,2 G,2- G,G,G,G, | D,2 D,4 [D,D][D,D] | %20
 [A,EG]3 [A,DG] [A,CE]2 [A,CG]2 | [D,D]4 z [D,D][E,D][F,D] | %22
 [G,D]2[K:treble] [G,DG]2- [G,DG][=G,B,_F][G,B,F][G,B,F] | [A,DF]2 [A,DF]4 [A,DF]2 | %24
 [E,DE]3 [E,D] [E,B,]2 [E,D]2 | [A,CA]6 [A,CG][A,CG] | [D,D]2 [F,D]2 [G,E]2 [A,E]2 | %27
 [D,D]2 [D,D]4 [D,D]2 | [B,DF]3 [B,DF] [B,DF]2[K:bass] [G,B,]2 | [F,C]6 [F,C][F,C] | %30
 [F,C]2 [G,B,G]2 [G,B,E][G,B,E][G,CE][G,DE] | [A,DF]6 [=A,D_F]2 | %32
[M:9/8] [A,DF]3 [A,DF] [A,CG]2 [A,G]3 |[M:3/4][K:bass] [D,A,]6 |] %34
V:3
 x8 | D,2 F,2 G,A, z C | x8 | x8 | x8 | x7[K:treble] x | x2[K:bass] x6 | x8 | x8 | x8 | x8 | %11
 x4[K:bass] x4 | x6[K:treble] x2 | x8 | x8 | x8 |[M:5/8][K:bass] x5 |[M:3/8] x3 |[M:4/4] x8 | x8 | %20
 x8 | x8 | x2[K:treble] x6 | x8 | x8 | x8 | x8 | x8 | x6[K:bass] x2 | x8 | x8 | x8 |[M:9/8] x9 | %33
[M:3/4][K:bass] x6 |] %34

